!!!SOCIAL_FUNCTION: man chief's songs
!!!PDT:	1929
!!!LING_GROUP: Caddoan
!!!LANG: Non-Tone
!!!REG: Oklahoma
!!!COM: Anon.
!!!OTL: I am Exalted Among the People
!!!ODT: <1920//
!!!MPN: Laduda desadu [He does everything as a chief, John Luwak]
!!!MLC: Pawnee, Oklahoma, United States of America
!! Song was recorded either 1919 or 1920.
!!!AGN: monody
!!!AMT: simple duple
!!!RWG: Transcribed pitches, durations, and meters are only approximate.
!! Drum not recorded
**kern	**silbe	**words	**words
*ICvox	*LPawnee	*LPawnee	*LEnglish
*Imale	*	*	*
*clefF4	*	*	*
*k[f#c#g#d#]	*	*	*
*M2/4	*M2/4	*M2/4	*M2/4
*MM60	*MM60	*MM60	*MM60
16g#	A-	Atias	Father
=1	=1	=1	=1
8.g#	-ti-	.	.
16f#	-as	.	.
8.f#	ru	ru	yonder
16e	a	a	is said
=2	=2	=2	=2
8.e	ra	ra	to have
16e	ri-	rike	stood
8.e	-ke	.	.
16f#	a-	atias	father
=3	=3	=3	=3
8.f#	-ti-	.	.
16e	-as	.	.
8.e	ru	ru	yonder
16e	a	a	is said
=4	=4	=4	=4
(16e	ra	ra	to have
8d#)	|	.	.
16B	ri-	rike	stood
8.B	-ke	.	.
16B	a-	atias	father
=5	=5	=5	=5
8.A	-ti-	.	.
16F#	-as	.	.
8.F#	ru	ru	yonder
16E	a	a	is said
=6	=6	=6	=6
8.E	ra	ra	to have
16E	ri-	rike	stood
8.E	-ke	.	.
16B	a-	atias	father
=7	=7	=7	=7
8.A	-ti-	.	.
16F#	-as	.	.
8.F#	ru	ru	yonder
16E	a	a	is said
=8	=8	=8	=8
8.E	ra	ra	to have
16E	ri-	rike	stood
4E	-ke	.	.
=9	=9	=9	=9
2E	.	.	.
=10	=10	=10	=10
4..E	.	.	.
==	==	==	==
*-	*-	*-	*-
!!!HAO:    The singer spoke with deep affection of Man Chief, to whom many
!!!HAO: songs were attributed.  According to the singer, Man Chief was
!!!HAO: chief of the four bands of Pawnee and died in 1858 at the age of
!!!HAO: 74 years.  concerning the next song it was said, "When we first
!!!HAO: elected Man Chief as chief he thanked God, and then he sang this
!!!HAO: song."  The words with the repetition of the melody were: "My
!!!HAO: father himself, through him I am exalted (made prominent) among
!!!HAO: the people."
!!!HTX: My father himself,
!!!HTX: Through him I am exalted (made prominent)
!!!HTX: Among the people.
!!!CNT: Pawnee
!!!TXO: Pawnee
!!!OCY: United States
!!!OCL: Frances Densmore
!!!YOR: Frances Densmore, "Pawnee Music"
!!!YOR: Bulletin 93, page 87, No. 60
!!!PPR: Smithsonian Institution, Bureau of American Ethnology
!!!PPR: Government Printing Office
!!!PDT: 1926
!!!PPP: Washington, DC, United States of America
!!!YEC: Electronic Copyright 2000 David Huron
!!!YER: September 2000
!!!YEN: United States of America
!!!ENC: David Huron
!!!RDT: September 5, 2000
!!!EEV: Release 1.0
!!!AIN: vox
